X: 37803
T: Sonny Brogan's
R: jig
M: 6/8
K: Adorian
AEA c3|~d3 e=fe|~A3 cde|dcA ~G3|
AEA cBc|~d3 ege|~a3 ged|cAG A3||
AEA c3|~d3 ecA|~A3 cde|dcA GED|
AEA cBc|~d3 ecA|~a3 ged|cA^G AB/c/d||
|:eaa aba|gef ~g3|eaa aba|ged cAA|
~a3 aba|gef gfg|~a3 ged|1 cAG AB/c/d:|2 cAG A z/E/F/G/||

